modules/themify-icons/icons/ruler-pencil.svg

<?xml version="1.0" encoding="utf-8"?>
<!-- Generated by IcoMoon.io -->
<!DOCTYPE svg PUBLIC "-//W3C//DTD SVG 1.1//EN" "http://www.w3.org/Graphics/SVG/1.1/DTD/svg11.dtd">
<svg version="1.1" xmlns="http://www.w3.org/2000/svg" xmlns:xlink="http://www.w3.org/1999/xlink" width="17" height="17" viewBox="0 0 17 17">
<g>
</g>
	<path d="M4.492 0h-1.984c-0.827 0-1.5 0.673-1.5 1.5v10.657l2.521 4.956 2.464-4.959v-10.654c-0.001-0.827-0.674-1.5-1.501-1.5zM2.508 1h1.984c0.275 0 0.5 0.225 0.5 0.5v1.019h-2.984v-1.019c0-0.275 0.224-0.5 0.5-0.5zM2.008 4.55v-1.031h2.984v1.031h-2.984zM3.948 14.021h-0.87l-1.070-2.104v-6.367h1v6.481h1v-6.481h0.984v6.37l-1.044 2.101zM8 0v17h7v-17h-7zM14 16h-5v-0.984h2v-1h-2v-1.016h1v-1h-1v-1h2v-1h-2v-0.984h1v-1h-1v-1h2v-1h-2v-1.016h1v-1h-1v-1h2v-1h-2v-1h5v15z" fill="#000000" />
</svg>

<svg xmlns="http://www.w3.org/2000/svg" width="17" height="17" viewBox="0 0 17 17"><path d="M4.492 0H2.508c-.827 0-1.5.673-1.5 1.5v10.657l2.521 4.956 2.464-4.959V1.5A1.503 1.503 0 0 0 4.492 0zM2.508 1h1.984c.275 0 .5.225.5.5v1.019H2.008V1.5a.5.5 0 0 1 .5-.5zm-.5 3.55V3.519h2.984V4.55H2.008zm1.94 9.471h-.87l-1.07-2.104V5.55h1v6.481h1V5.55h.984v6.37l-1.044 2.101zM8 0v17h7V0H8zm6 16H9v-.984h2v-1H9V13h1v-1H9v-1h2v-1H9v-.984h1v-1H9v-1h2v-1H9V5h1V4H9V3h2V2H9V1h5v15z"/></svg>
